src/assets/icons/ico_flooring.svg

<?xml version="1.0" encoding="utf-8"?>
<!-- Generator: Adobe Illustrator 26.0.1, SVG Export Plug-In . SVG Version: 6.00 Build 0)  -->
<svg version="1.1" id="Layer_1" xmlns="http://www.w3.org/2000/svg" xmlns:xlink="http://www.w3.org/1999/xlink" x="0px" y="0px"
	 viewBox="0 0 64 64" style="enable-background:new 0 0 64 64;" xml:space="preserve">
<style type="text/css">
	.st0{fill:#43BBC4;}
</style>
<path class="st0" d="M42.4764,22.9057l2.9836-1.9536c0.1431-0.0938,0.2285-0.2539,0.2261-0.4248s-0.0918-0.3291-0.2373-0.4189
	l-13.186-8.1387c-0.1611-0.0996-0.3643-0.0996-0.5254,0l-13.186,8.1387c-0.1455,0.0898-0.2349,0.248-0.2373,0.4189
	s0.083,0.3311,0.2261,0.4248l2.9836,1.9536L4.1655,33.4336c-0.1475,0.0898-0.2383,0.249-0.2407,0.4209
	c-0.0024,0.1729,0.0845,0.334,0.2295,0.4277l27.5752,17.7432c0.0825,0.0527,0.1763,0.0791,0.2705,0.0791s0.188-0.0264,0.2705-0.0791
	l27.5752-17.7432c0.145-0.0938,0.2319-0.2549,0.2295-0.4277c-0.0024-0.1719-0.0933-0.3311-0.2407-0.4209L42.4764,22.9057z
	 M32,12.9834l12.2544,7.5635l-2.7253,1.7844l-1.0139-0.6144c-0.2354-0.1426-0.5439-0.0684-0.687,0.1689
	c-0.1431,0.2354-0.0674,0.543,0.1685,0.6865l0.6047,0.3665L32,28.5703l-8.6013-5.6316l0.6047-0.3665
	c0.2358-0.1436,0.3115-0.4512,0.1685-0.6865c-0.1431-0.2363-0.4497-0.3115-0.687-0.1689l-1.0139,0.6144l-2.7253-1.7844L32,12.9834z
	 M31.7261,29.5859c0.083,0.0547,0.1787,0.082,0.2739,0.082s0.1909-0.0273,0.2739-0.082l9.2748-6.0729l3.0816,1.869L32.0753,33.477
	l-12.7014-8.0975l3.0774-1.8665L31.7261,29.5859z M18.4203,25.9578l12.7299,8.1155l-12.7231,8.2032L5.3682,33.874L18.4203,25.9578z
	 M32,51.0098l-12.6497-8.1392l12.7274-8.2059l12.7211,8.11L32,51.0098z M45.7247,42.1788l-12.722-8.1106l12.5781-8.1097
	l13.051,7.9155L45.7247,42.1788z"/>
<path class="st0" d="M26.0688,21.2344c0.0884,0,0.1777-0.0234,0.2588-0.0723l2.3247-1.4092
	c0.2358-0.1436,0.3115-0.4512,0.1685-0.6865c-0.1436-0.2363-0.4497-0.3105-0.687-0.1689l-2.3247,1.4092
	c-0.2358,0.1436-0.3115,0.4512-0.1685,0.6865C25.7349,21.1484,25.8999,21.2344,26.0688,21.2344z"/>
<path class="st0" d="M30.9766,18.3428L32,17.7227l1.0234,0.6201c0.0811,0.0488,0.1704,0.0723,0.2588,0.0723
	c0.1689,0,0.334-0.0859,0.4282-0.2412c0.1431-0.2354,0.0674-0.543-0.1685-0.6865L32.2593,16.71
	c-0.1592-0.0957-0.3594-0.0957-0.5186,0l-1.2827,0.7773c-0.2358,0.1436-0.3115,0.4512-0.1685,0.6865
	C30.4336,18.4102,30.7407,18.4854,30.9766,18.3428z"/>
<path class="st0" d="M35.3477,19.7529l2.3247,1.4092c0.0811,0.0488,0.1704,0.0723,0.2588,0.0723
	c0.1689,0,0.334-0.0859,0.4282-0.2412c0.1431-0.2354,0.0674-0.543-0.1685-0.6865l-2.3247-1.4092
	c-0.2354-0.1426-0.5435-0.0674-0.687,0.1689C35.0361,19.3018,35.1118,19.6094,35.3477,19.7529z"/>
</svg>

<?xml version="1.0" encoding="UTF-8" standalone="no"?>
<!DOCTYPE svg PUBLIC "-//W3C//DTD SVG 1.1//EN" "http://www.w3.org/Graphics/SVG/1.1/DTD/svg11.dtd">
<svg width="100%" height="100%" viewBox="0 0 65 65" version="1.1" xmlns="http://www.w3.org/2000/svg" xmlns:xlink="http://www.w3.org/1999/xlink" xml:space="preserve" xmlns:serif="http://www.serif.com/" style="fill-rule:evenodd;clip-rule:evenodd;stroke-linejoin:round;stroke-miterlimit:2;">
    <g transform="matrix(1,0,0,1,-146,-79)">
        <g transform="matrix(0.0625,0,0,0.0833333,146.422,79.8764)">
            <rect id="ico_flooring" x="0" y="0" width="1024" height="768" style="fill:none;"/>
            <g id="ico_flooring1" serif:id="ico_flooring">
                <g id="ico_flooring.svg" transform="matrix(16,0,0,12,512,384)">
                    <g transform="matrix(1,0,0,1,-32,-32)">
                        <g>
                            <path d="M42.476,22.906L45.46,20.952C45.603,20.858 45.689,20.698 45.686,20.527C45.684,20.356 45.594,20.198 45.449,20.108L32.263,11.97C32.102,11.87 31.899,11.87 31.737,11.97L18.551,20.108C18.406,20.198 18.317,20.356 18.314,20.527C18.312,20.698 18.397,20.858 18.54,20.952L21.524,22.906L4.166,33.434C4.018,33.523 3.927,33.683 3.925,33.855C3.922,34.027 4.009,34.189 4.154,34.282L31.729,52.025C31.812,52.078 31.906,52.105 32,52.105C32.094,52.105 32.188,52.078 32.27,52.025L59.846,34.282C59.991,34.188 60.078,34.027 60.075,33.855C60.073,33.683 59.982,33.523 59.835,33.434L42.476,22.906ZM32,12.983L44.254,20.547L41.529,22.331L40.515,21.717C40.28,21.574 39.971,21.649 39.828,21.886C39.685,22.121 39.761,22.429 39.997,22.572L40.601,22.939L32,28.57L23.399,22.939L24.003,22.572C24.239,22.429 24.315,22.121 24.172,21.886C24.029,21.649 23.722,21.574 23.485,21.717L22.471,22.331L19.746,20.547L32,12.983ZM31.726,29.586C31.809,29.641 31.905,29.668 32,29.668C32.095,29.668 32.191,29.641 32.274,29.586L41.549,23.513L44.63,25.382L32.075,33.477L19.374,25.379L22.451,23.513L31.726,29.586ZM18.42,25.958L31.15,34.073L18.427,42.277L5.368,33.874L18.42,25.958ZM32,51.01L19.35,42.871L32.078,34.665L44.799,42.775L32,51.01ZM45.725,42.179L33.003,34.068L45.581,25.959L58.632,33.874L45.725,42.179Z" style="fill:rgb(26,91,87);fill-rule:nonzero;"/>
                            <path d="M26.069,21.234C26.157,21.234 26.247,21.211 26.328,21.162L28.652,19.753C28.888,19.609 28.964,19.302 28.821,19.066C28.677,18.83 28.371,18.756 28.134,18.898L25.809,20.307C25.573,20.45 25.498,20.758 25.641,20.993C25.735,21.148 25.9,21.234 26.069,21.234Z" style="fill:rgb(26,91,87);fill-rule:nonzero;"/>
                            <path d="M30.977,18.343L32,17.723L33.023,18.343C33.105,18.392 33.194,18.415 33.282,18.415C33.451,18.415 33.616,18.329 33.71,18.174C33.853,17.939 33.778,17.631 33.542,17.487L32.259,16.71C32.1,16.614 31.9,16.614 31.741,16.71L30.458,17.487C30.222,17.631 30.147,17.939 30.29,18.174C30.434,18.41 30.741,18.485 30.977,18.343Z" style="fill:rgb(26,91,87);fill-rule:nonzero;"/>
                            <path d="M35.348,19.753L37.672,21.162C37.754,21.211 37.843,21.234 37.931,21.234C38.1,21.234 38.265,21.148 38.359,20.993C38.503,20.758 38.427,20.45 38.191,20.307L35.866,18.898C35.631,18.755 35.323,18.83 35.179,19.066C35.036,19.302 35.112,19.609 35.348,19.753Z" style="fill:rgb(26,91,87);fill-rule:nonzero;"/>
                        </g>
                    </g>
                </g>
            </g>
        </g>
    </g>
</svg>
